X: 1
T: Blessed Jesus at Thy Word
C: Words: verses 1-3, Tobias Clausnitzer, 1663. verse 4, unknown author.  Translated by Catherine Winkworth, 1858.
C: Music: 'Liebster Jesu wir Sind Hier' Johann Rudolph Ahle, 1664.  Setting: Fridrich Layriz, 1854.
C: copyright: public domain.  This score is a part of the Open Hymnal Project, 2012 Revision.
S: Music source: "Kern des Deutschen Kirchengesangs zum Gebrauch Evangelisch-Lutherischer Gemeinden und Familien", 1854 by Fridrich Layriz Hymn 75 page 46
M: 4/4 % time signature
L: 1/4 % default length
%%staves (S1V1 S1V2) | (S2V1 S2V2) 
V: S1V1 clef=treble 
%%MIDI beat 127 125 110 1
V: S1V2 
%%MIDI beat 127 125 110 1
V: S2V1 clef=bass 
%%MIDI beat 127 125 110 1
V: S2V2 
%%MIDI beat 127 125 110 1
K: G % key signature
%
%%MIDI program 1 0 % Piano 1
%%MIDI program 2 0 % Piano 1
%%MIDI program 3 0 % Piano 1
%%MIDI program 4 0 % Piano 1
%
% 1
[V: S1V1] [Q:1/4=120] B G A d | B G A2 | G G G G | A B A2 | G4 |
w: 1.~Bles- sed Je- sus, at Thy Word We are ga- thered all to hear Thee; 
w: 2.~All our know- ledge, sense, and sight Lie in deep- est dark- ness shroud- ed, 
w: 3.~Glor- ious Lord, Thy- self im- part! Light of light, from God pro- ceed- ing, 
w: 4.~Fa- ther, Son, and Ho- ly Ghost, Praise to Thee and a- do- ra- tion! 
[V: S1V2] D D D F | D E F2 | D D E D | F G2 F | G4 |
[V: S2V1] G, B, A, A, | G, B, D2 | G, B, C G, | C D D2 | B,4 |
[V: S2V2] G, G, F, D, | G, E, D,2 | B,, G,, C, B,, | A,, G,, D,2 | G,,4 |
% 6
[V: S1V1] B G A d | B G A2 | G G G G | A B A2 | G4 |
w: Let our hearts and souls be stirred Now to seek and love and fear Thee, 
w: Til Thy Spir- it breaks our night With the beams of truth un- cloud- ed; 
w: O- pen Thou our ears and heart; Help us by Thy Spir- it's plead- ing; 
w: Grant that we Thy Word may trust And ob- tain true con- so- la- tion, 
[V: S1V2] D D D F | D E F2 | D D E D | F G2 F | G4 |
[V: S2V1] G, B, A, A, | G, B, D2 | G, B, C G, | C D D2 | B,4 |
[V: S2V2] G, G, F, D, | G, E, D,2 | B,, G,, C, B,, | A,, G,, D,2 | G,,4 |
% 11
[V: S1V1] D D E F | G A F D | !sintro!G G A B | c B A2 | G4 !eintro!|]
w: By Thy teach- ings sweet and ho- ly, Drawn from earth to love Thee sole- ly. 
w: Thou a- lone to God canst win us; Thou must work all good with- in us. 
w: Hear the cry Thy peo- ple rais- es; Hear and bless our prayers and prais- es. 
w: While we here be- low must wan- der, Till we sing Thy prais- es yon- der. 
[V: S1V2] D D ^C D | D E D D | D B, D D | E D D2 | B,4 |]
[V: S2V1] B, A, G, A, | B, A, A, F, | G, G, F, G, | G, G,2 F, | G,4 |]
[V: S2V2] G, F, E, D, | B,, ^C, D, D, | B,, E, D, G,, | C, G,, D,2 | G,,4 |]
